X:24
T:Out on the Ocean
R:jig
Z:Also played in A, #339
Z:id:hn-jig-24
M:6/8
K:G
DBB BAG|BdB A2B|GED G2A|BAB AGE|DBB BAG|BdB A2B|GED G2A|1 BGF G2E:|2 BGF GBd||
|:~e3 edB|efe edB|ded dBd|gfe dBA|G2A B2d|ege dBA|GED G2A|1 BGF GBd:|2 BGF G2E||
<end>
<start>
